X: 9
T:La Plante
M:3/8
L:1/16
S:French Creek
K:D
FE|D2F2A2|d4f2|efedcB|ABAGFE|!D2F2A2|d4f2|efedcB|A4:||GAB2G2|FGA2F2|!
EFGABc|d2A2F2|GAB2G2|FGA2F2|EFGABc|d4:||
